icons/arrow-doublehead-h.svg

<svg width="24" height="24" viewBox="0 0 24 24" fill="none" xmlns="http://www.w3.org/2000/svg">
<path fill-rule="evenodd" clip-rule="evenodd" d="M3.80005 12C3.80005 11.5858 4.13584 11.25 4.55005 11.25H19.45C19.8643 11.25 20.2 11.5858 20.2 12C20.2 12.4142 19.8643 12.75 19.45 12.75H4.55005C4.13584 12.75 3.80005 12.4142 3.80005 12Z" fill="black"/>
<path fill-rule="evenodd" clip-rule="evenodd" d="M8.9803 7.16962C9.27319 7.46251 9.27319 7.93739 8.9803 8.23028L5.32668 11.8839C5.28526 11.9504 5.27497 12.0059 5.27497 12.0375C5.27497 12.0554 5.27809 12.0649 5.27915 12.0675C5.27945 12.0683 5.27966 12.0688 5.27981 12.069L9.07318 15.7626C9.36996 16.0516 9.37629 16.5264 9.08732 16.8232C8.79836 17.1199 8.32353 17.1263 8.02676 16.8373L4.21959 13.1303C3.59204 12.5028 3.68463 11.5704 4.14997 10.95L4.18195 10.9073L7.91964 7.16962C8.21253 6.87673 8.68741 6.87673 8.9803 7.16962Z" fill="black"/>
<path fill-rule="evenodd" clip-rule="evenodd" d="M15.0197 7.2696C15.3126 6.9767 15.7875 6.9767 16.0804 7.2696L19.7804 10.9696C20.3733 11.5625 20.3733 12.5374 19.7804 13.1303L16.0804 16.8303C15.7875 17.1231 15.3126 17.1231 15.0197 16.8303C14.7268 16.5374 14.7268 16.0625 15.0197 15.7696L18.7197 12.0696C18.7199 12.0694 18.725 12.0643 18.725 12.0499C18.725 12.0356 18.7199 12.0305 18.7197 12.0303L15.0197 8.33026C14.7268 8.03736 14.7268 7.56249 15.0197 7.2696Z" fill="black"/>
</svg>

<svg xmlns="http://www.w3.org/2000/svg" fill="none" viewBox="0 0 24 24">
  <path fill="#000" fill-rule="evenodd" d="M3.8 12a.75.75 0 0 1 .75-.75h14.9a.75.75 0 1 1 0 1.5H4.55A.75.75 0 0 1 3.8 12Z" clip-rule="evenodd"/>
  <path fill="#000" fill-rule="evenodd" d="M8.98 7.17a.75.75 0 0 1 0 1.06l-3.653 3.654a.303.303 0 0 0-.052.153.084.084 0 0 0 .005.032l3.793 3.694a.75.75 0 0 1-1.046 1.074L4.22 13.13c-.628-.627-.535-1.56-.07-2.18l.032-.043L7.92 7.17a.75.75 0 0 1 1.06 0Zm6.04.1a.75.75 0 0 1 1.06 0l3.7 3.7a1.535 1.535 0 0 1 0 2.16l-3.7 3.7a.75.75 0 0 1-1.06-1.06l3.7-3.7s.005-.006.005-.02-.005-.02-.005-.02l-3.7-3.7a.75.75 0 0 1 0-1.06Z" clip-rule="evenodd"/>
</svg>
